!!!ONB: MCCC : IJB0031_07 : Extracted Monophonic Melody
!!!COM: Brahms, Johannes
!!!OPR: Sieben Fantasien
!!!OMV: 7
!!!SCT: Op.116
!!!ODT: 1892///
**kern
*staff1
=1
*clefG2
*k[]
*C:
*M2/4
16ff
16dd
16b
16g#
4ee
=2
16dd
16b
16g#
16f
4a
=3
16ff
16dd
16b
16g#
4ee
=4
16dd
16b
16g#
16f
4a
=5
16aa
16ee-
16cc
16a
4dd
=6
16gg
16cc#
16b-
16g
4cc
=7
8ff
4ff[
16ff]
16b
=8
16ee
16b
16g#
16a
16dd
16a
16f#
16g#
=9
8.dd
16b[
16b]
8cc#
16ee[
=10
16ee]
8gg
16bb-[
16bb-]
8aa
16ee
=11
16r
16ff
16b
16g#
4ee
=12
16r
16dd
16g#
16f
4a
=13
16r
16ff
16b
16g#
4ee
=14
16r
16dd
16g#
16f
4a
=15
16r
16aa
16cc
16a
4dd
=16
16r
16gg
16b-
16g
4cc
=17
16r
16ff
16a
16b
16r
16ff
16a
16b
=18
16r
16ee
16g#
16a
16r
16dd
16f#
16g#
=19
16r
8dd
16b[
16b]
8cc
16a[
=20
16a]
8f#
16e-[
16e-]
8e
16B-
=21
*M6/8
8r
4c
4.B
=22
8ddd
8bb
8ff
8dd
8b
8d[
=23
8d]
4e
4.d
=24
8fff#
8eee-
8aa
8ff#
8ee-
8f#[
=25
8f#]
4a
4.g#
=26
8bb
8gg#
8dd
8cc
8a
8c[
=27
8c]
4e
4.e-
=28
8ff#
8ee-
8a
8g#
8e
8d
=29
8r
4c
4.B
=30
8ddd
8bb
8ff
8dd
8b
8d[
=31
8d]
4e
4.d
=32
8fff#
8eee-
8aa
8ff#
8ee-
8f#[
=33
8f#]
4a
4.g#
=34
8bb
8gg#
8dd
8cc
8a
8c[
=35
8c]
4e
4.e-
=36
8ff#
8ee-
8a
8g#
8e
8d
=37
8r
4cc
4b
8E
=38
8ddd
8bb
8gg#
8dd
8b
8d
=39
8r
4dd
4.cc#
=40
8eee
8ccc#
8bb-
8ee
8cc#
8e
=41
8r
4g#
4.g
=42
8ggg#
8ddd
8bb
8gg#
8dd
8b[
=43
8b]
4fff
4eee
8eee-
=44
8r
8ee
8ee
8cc
8ee
8gg#
=45
8gg#
4gg#
4.gg#
=46
8ccc
8aa
8gg#
8gg#
8gg#
8gg#
=47
8gg#
4gg#
4.gg#
=48
8fff
8ddd
8aa
8gg#
8gg#
8gg#
=49
8gg#
4gg#
4.gg#
=50
8fff
8ddd
8aa
8gg#
8gg#
8aa
=51
8aa
4gg#
4gg#
8gg#
=52
4.gg#
4.gg#
=53
8gg#
4gg#
4.gg#
=54
4.gg#
8dd
8b
8g#
=55
8g#
4dd
4.cc#
=56
8eee
8ccc#
8bb-
8ee
8cc#
8g#
=57
8g#
4g#
4.g#
=58
8ggg#
8ddd
8bb
8gg#
8gg#
8gg#[
=59
8gg#]
4fff
4eee
8eee-
=60
8r
8ee
8ee
8cc
8ee
8gg#
=61
8gg#
4gg#
4.gg#
=62
8ccc
8aa
8gg#
8gg#
8gg#
8gg#
=63
8gg#
4gg#
4.gg#
=64
8fff
8ddd
8aa
8gg#
8gg#
8gg#
=65
8gg#
4gg#
4.gg#
=66
8fff
8ddd
8aa
8gg#
8gg#
8aa
=67
8aa
4aa
4aa
8aa
=68
8aa
4aa
4aa
8aa
=69
8aa
4aa
4aa
8aa
=70
2.aa
=71
*M2/4
2aa
=72
8aa
16aa
32aa
32aa
4aa
=73
2aa
=74
4aa
16aa
16aa
16aa
16aa
=75
2aa
=76
16aa
8.aa
4aa
=77
2aa
=78
2aa
=79
8.aa
16aa
16aa
16bb
16ddd
16aa
=80
16aa
16aa
16aa
16aa
16ddd
16ee
16ff
16ee
=81
16ddd
16ee
16ff
16ee
16ddd
16ee
16ff
16ee
=82
16ddd
16dd
8b
32g#
32dd
16g#
16g#
16g#
=83
2g#
=84
16g#
16g#
16g#
16g#
16g#
16b-
16cc#
16ee
=85
16gg
16bb-
16ccc#
16eee
4g#
=86
16ff
16dd
8b
16g#
8.ee
=87
16dd
16b
16g#
16g#
4a
=88
16ff
16dd
8b
16g#
8.ee
=89
16dd
16b
16g#
16g#
4a
=90
16aa
8.aa
16cc
8.dd
=91
4cc
4cc
=92
8cc
16a
32b
32ff
4ff
=93
8.cc
16cc
16dd
32cc
32cc
8cc
=94
4dd
4cc
=95
2cc
=96
4cc
4cc
=97
16cc
8.cc
16cc
8.cc
=98
*M3/8
8cc
4fff
=99
8fff
4eee
=100
8ccc#
8ccc#
8ccc#
=101
8ccc#
8ccc#
8ccc#
=102
8ccc#
8ccc#
8ccc#
=103
8ccc#
8ccc#
8ccc#
=104
8ccc#
8ccc#
8ccc#
=105
8ccc#
8ccc#
8ccc#
=106
4ccc#
8ccc#
=107
8gg
8ccc#
8ee
=108
4ddd
8ddd
=109
8ddd
8ddd
8ddd
=110
4eee
8eee[
=111
8eee]
8eee[
8eee]
=112
8eee[
8eee]
8eee[
=113
8eee]
8eee[
8eee]
=114
*M2/4
2fff#
=115
4ddd
4ddd
=116
2r
=117
2r
==
*-
